X:1
T:Christmas Day - Stainer
T:#
%%score [ ( 1 2 ) ( 3 4 ) ]
L:1/8
Q:1/4=120
M:4/4
K:D
V:1 treble nm="MusicXML Part"
V:2 treble 
V:3 bass nm="MusicXML Part"
V:4 bass 
V:1
 x2 |:"^Tr. H. R. Bramley""^Christmas Day" F3 F G2 F2 | E2 A2 D4 | F2 ^G2 A2 c2 | %4
 B4"^John Stainer\n(1840-1901)" A4 |"^5" A3 A B2 A2 |[M:4/4] ^G2 c2 A4 | A2 B2 c2 e2 | B4 A4 || %9
 d2 c2 B2 A2 |"^10" G2 B2 (A2 G2) | F2 E2 D2 G2 | F4 E4 || A2 F2 E3 F | G2 E2 (D2 E2) | %15
"^15" F2 F2 AG F2 | E2 D2 E4 | d3 c A2 B2 | F2 G2 (A2 B2) | c2 d2 AG F2 | %20
[M:3/2]"^20" F2 E2 D6 z2 :|[M:4/4] x2 |: F3 F G2 F2 | E2 A2 D4 | F2 ^G2 A2 c2 | B4 A4 | %26
"^25" A3 A B2 A2 |[M:4/4] ^G2 c2 A4 | A2 B2 c2 e2 | B4 A4 || d2 c2 B2 A2 |"^30" G2 B2 (A2 G2) | %32
 F2 E2 D2 G2 | F4 E4 || A2 F2 E3 F | G2 E2 (D2 E2) |"^35" F2 F2 AG F2 | E2 D2 E4 | d3 c A2 B2 | %39
 F2 G2 (A2 B2) | c2 d2 AG F2 |[M:3/2]"^40" F2 E2 D6 z2 :|[M:4/4] F3 F G2 F2 | E2 A2 D4 | %44
 F2 ^G2 A2 c2 | B4 A4 |[M:4/4]"^45" A3 A B2 A2 | ^G2 c2 A4 | A2 B2 c2 e2 | B4 A4 || d2 c2 B2 A2 | %51
"^50" G2 B2 (A2 G2) | F2 E2 D2 G2 | F4 E4 || A2 F2 E3 F | G2 E2 (D2 E2) |"^55" F2 F2 AG F2 | %57
 E2 D2 E4 | d3 c A2 B2 | F2 G2 (A2 B2) | c2 d2 AG F2 |"^60" F2 E2 D4 |] %62
V:2
 x2 |: D2 D2 D2 D2 | D2 C2 D4 | F2 ^E2 F2 F2 | (F2 ED) C4 | F3 F F2 F2 |[M:4/4] =F2 ^E2 ^F4 | %7
w: |Wake all mu- sic's|ma- gic powers,|On this bliss- ful|morn­ * * ing,|Born to- day, the|Child of ours,|
w: |||||||
w: |Let this glo- rious|ho- li- day|Find such ho- ly|spend­ * * ing,|That the sim- ple-|hear- ted may|
 C2 E2 E2 E2 | D4 C4 || D2 E2 D2 ^D2 | E2 E2 E4 | D2 E2 D2 E2 | D4 C4 || F2 D2 C3 D | %14
w: Theme of Pro- phet's|warn- ing;|Gi- ant in the|race he towers,|Toil and dan- ger|scorn- ing.|O that bless- ed|
w: |||||||
w: Joy with- out of-|fend- ing,|And sweet cha- ri-|ty may stay,|With our con- course|blend- ing.||
 E2 C2 (B,2 C2) | D2 D2 E2 D2 | B,2 D2 C4 | B3 A F2 G2 | D2 E2 (F2 G2) | G2 F2 E2 D2 | %20
w: go- ing out, *|Which sal- va- tion|||||
w: ||brought a- bout,|O that bless- ed|go- ing out, *|Which sal- va- tion|
w: ||||||
[M:3/2] D2 C2 D6 z2 :|[M:4/4] x2 |: D2 D2 D2 D2 | D2 C2 D4 | F2 [^E^G]2 F2 F2 | (F2 ED) C4 | %26
w: ||Give we glo- ry|to this feast,|For man's res- to-|ra­ * * tion:|
w: brought a- bout.||||||
w: ||O how bright is|this day made,|Day with rad- iance|glow­ * * ing,|
 F3 F F2 F2 |[M:4/4] =F2 ^E2 ^F4 | C2 E2 E2 E2 | D4 C4 || D2 E2 D2 ^D2 | E2 E2 E4 | D2 E2 D2 E2 | %33
w: Now the guil- ty|is re- leased,|Freed from con- dem-|na- tion:|By the wi- dow's|son de- ceased,|See E- li- sha's|
w: |||||||
w: Which the Light of|Light dis- played,|Light in dark- ness|shew- ing;|Chas- ing thus death's|gloom- y shade,|Bright- ness o'er us|
 D4 C4 || F2 D2 C3 D | E2 C2 (B,2 C2) | D2 D2 E2 D2 | B,2 D2 C4 | B3 A F2 G2 | D2 E2 (F2 G2) | %40
w: sta- tion!|O that bless- ed|go- ing out, *|Which sal- va- tion||||
w: ||||brought a- bout,|O that bless- ed|go- ing out, *|
w: throw- ing!|||||||
 G2 F2 E2 D2 |[M:3/2] D2 C2 D6 z2 :|[M:4/4] D2 D2 D2 D2 | D2 C2 D4 | F2 [^E^G]2 F2 F2 | %45
w: ||Risen to- day in|splen- dour bright,|Shin- ing to all|
w: Which sal- va- tion|brought a- bout.||||
w: |||||
 (F2 ED) C4 |[M:4/4] F3 F F2 F2 | =F2 ^E2 ^F4 | C2 E2 E2 E2 | D4 C4 || D2 E2 D2 ^D2 | E2 E2 E4 | %52
w: a­ * * ges,|Beams the Sun, whose|dis- tant light|Touched the Pro- phet's|pa- ges;|Now, to end the|reign of night,|
w: |||||||
w: |||||||
 D2 E2 D2 E2 | D4 C4 || F2 D2 C3 D | E2 C2 (B,2 C2) | D2 D2 E2 D2 | B,2 D2 C4 | B3 A F2 G2 | %59
w: Christ his power en-|ga- ges.|O that bless- ed|go- ing out, *|Which sal- va- tion|||
w: |||||brought a- bout,|O that bless- ed|
w: |||||||
 D2 E2 (F2 G2) | G2 F2 E2 D2 | D2 C2 D4 |] %62
w: |||
w: |||
w: go- ing out, *|Which sal- va- tion|brought a- bout.|
V:3
 x2 |: A,2 A,2 G,2 A,2 | B,2 A,G, F,4 | B,2 B,2 A,2 A,2 | (A,2 ^G,2) A,4 | C3 C D2 C2 | %6
w: ||||||
[M:4/4] C2 C2 C4 | A,2 ^G,2 A,2 A,2 | ^G,4 A,4 || A,2 ^A,2 B,2 B,2 | B,2 G,2 E,4 | %11
w: |||||
 A,2 ^A,2 B,2 B,2 | A,4 A,4 || z4 C2 A,2 | G,3 A, B,2 G,2 | A,3 A, A,2 A,2 | G,2 F,2 A,4 | %17
w: ||O that|bless- ed go- ing|out, sal- va- tion||
 D3 C A,2 B,2 | F,2 G,2 (A,2 B,2) | A,2 A,2 A,2 A,2 |[M:3/2] A,3 G, F,6 z2 :|[M:4/4] x2 |: %22
w: |||||
 A,2 A,2 G,2 A,2 | B,2 A,G, F,4 | B,2 B,2 A,2 A,2 | (A,2 ^G,2) A,4 | C3 C D2 C2 |[M:4/4] C2 C2 C4 | %28
w: ||||||
 A,2 ^G,2 A,2 A,2 | ^G,4 A,4 || A,2 ^A,2 B,2 B,2 | B,2 G,2 E,4 | A,2 ^A,2 B,2 B,2 | A,4 A,4 || %34
w: ||||||
 z4 C2 A,2 | G,3 A, B,2 G,2 | A,3 A, A,2 A,2 | G,2 F,2 A,4 | D3 C A,2 B,2 | F,2 G,2 (A,2 B,2) | %40
w: O that|bless- ed go- ing|out, sal- va- tion||||
 A,2 A,2 A,2 A,2 |[M:3/2] A,3 G, F,6 z2 :|[M:4/4] A,2 A,2 G,2 A,2 | B,2 A,G, F,4 | %44
w: ||||
 B,2 B,2 A,2 A,2 | (A,2 ^G,2) A,4 |[M:4/4] C3 C D2 C2 | C2 C2 C4 | A,2 ^G,2 A,2 A,2 | ^G,4 A,4 || %50
w: ||||||
 A,2 ^A,2 B,2 B,2 | B,2 G,2 E,4 | A,2 ^A,2 B,2 B,2 | A,4 A,4 || z4 C2 A,2 | G,3 A, B,2 G,2 | %56
w: ||||O that|bless- ed go- ing|
 A,3 A, A,2 A,2 | G,2 F,2 A,4 | D3 C A,2 B,2 | F,2 G,2 (A,2 B,2) | A,2 A,2 A,2 A,2 | A,3 G, F,4 |] %62
w: out, sal- va- tion||||||
V:4
 x2 |: D,2 C,2 B,,2 A,,2 | G,,2 A,,2 B,,4 | D,2 C,2 F,2 E,2 | (D,2 E,2) A,,4 | F,3 F, B,,2 F,2 | %6
[M:4/4] C,2 C,2 F,4 | F,2 E,2 A,2 C,2 | E,4 A,,4 || F,2 F,2 G,2 F,2 | E,2 D,2 C,4 | %11
 D,2 C,2 B,,2 G,,2 | A,,4 A,,4 || z4 A,2 F,2 | E,3 F, G,2 E,2 | D,3 D, C,2 D,2 | G,,2 B,,2 A,,4 | %17
 B,3 A, F,2 G,2 | D,2 E,2 (F,2 G,2) | E,2 D,2 C,2 D,2 |[M:3/2] A,,2 A,,2 D,6 z2 :|[M:4/4] x2 |: %22
 D,2 C,2 B,,2 A,,2 | G,,2 A,,2 B,,4 | D,2 C,2 F,2 E,2 | (D,2 E,2) A,,4 | F,3 F, B,,2 F,2 | %27
[M:4/4] C,2 C,2 F,4 | F,2 E,2 A,2 C,2 | E,4 A,,4 || F,2 F,2 G,2 F,2 | E,2 D,2 C,4 | %32
 D,2 C,2 B,,2 G,,2 | A,,4 A,,4 || z4 A,2 F,2 | E,3 F, G,2 E,2 | D,3 D, C,2 D,2 | G,,2 B,,2 A,,4 | %38
 B,3 A, F,2 G,2 | D,2 E,2 (F,2 G,2) | E,2 D,2 C,2 D,2 |[M:3/2] A,,2 A,,2 D,6 z2 :| %42
[M:4/4] D,2 C,2 B,,2 A,,2 | G,,2 A,,2 B,,4 | D,2 C,2 F,2 E,2 | (D,2 E,2) A,,4 | %46
[M:4/4] F,3 F, B,,2 F,2 | C,2 C,2 F,4 | F,2 E,2 A,2 C,2 | E,4 A,,4 || F,2 F,2 G,2 F,2 | %51
 E,2 D,2 C,4 | D,2 C,2 B,,2 G,,2 | A,,4 A,,4 || z4 A,2 F,2 | E,3 F, G,2 E,2 | D,3 D, C,2 D,2 | %57
 G,,2 B,,2 A,,4 | B,3 A, F,2 G,2 | D,2 E,2 (F,2 G,2) | E,2 D,2 C,2 D,2 | A,,2 A,,2 D,4 |] %62

